X: 35
T:Missa Pro Defunctis / Kyrie
N: Derived from Jos0404b-Missa_Pro_Defunctis-Kyrie.krn
C: Josquin des Prez
%%abc-version 2.0
%%abcx-abcm2ps-target-version 5.9.1 (29 Sep 2008)
%%abc-creator hum2abc beta
%%abcx-conversion-date 2019/02/12 16:15:39
%%abc-edited-by Jesse Rodin
%%abc-edited-by Will Watson 31/05/2011
%%abcx-initial-encoding-date 2012/01/21/
%%humdrum-veritas 120626564
%%humdrum-veritas-data 2311545609
%%linebreak <none>
%%barnumbers 0
L: 1/4
M: 2/1
Q: 1/2=120
V: 1 clef=treble
V: 2 clef=treble-8
V: 3 clef=treble-8
V: 4 clef=treble-8
V: 5 clef=treble-8
V: 6 clef=bass
K: F
[V:1] z4F4- | 
[V:2] c8 | 
[V:3] F6G2 | 
[V:4] z8 | 
[V:5] z8 | 
[V:6] F,8 | 
[V:1] F2G2A4 | 
[V:2] c4f4- | 
[V:3] A2B2c4 | 
[V:4] z8 | 
[V:5] z8 | 
[V:6] F,4F,4 | 
[V:1] B6A2 | 
[V:2] f4F3G | 
[V:3] d6cB | 
[V:4] z8 | 
[V:5] z8 | 
[V:6] B,,3C,D,E,F,2- | 
[V:1] A4G4 | 
[V:2] AFf4e2 | 
[V:3] c2d2B4 | 
[V:4] z8 | 
[V:5] z8 | 
[V:6] F,E,F,D,G,4 | 
[V:1] A6G/F/G/A/ | 
[V:2] f6e2 | 
[V:3] A4D3E | 
[V:4] z8 | 
[V:5] F8- | 
[V:6] F,8 | 
[V:1] B4A4- | 
[V:2] d6cB | 
[V:3] F2G2A2B2 | 
[V:4] z8 | 
[V:5] F8 | 
[V:6] B,,4F,4- | 
[V:1] A2G2F4- | 
[V:2] A8 | 
[V:3] c4F4 | 
[V:4] z8 | 
[V:5] F4F4 | 
[V:6] F,2E,2D,4 | 
[V:1] F4E4 | 
[V:2] z4c4- | 
[V:3] c6B2 | 
[V:4] z8 | 
[V:5] G8 | 
[V:6] C,8 | 
[V:1] F4c4- | 
[V:2] c2B2A4 | 
[V:3] A2G2F4 | 
[V:4] c8- | 
[V:5] F8 | 
[V:6] F,,8 | 
[V:1] c2B2A2GF | 
[V:2] G4c4- | 
[V:3] E4F4 | 
[V:4] c8 | 
[V:5] G4A4- | 
[V:6] z4F,4- | 
[V:1] c8 | 
[V:2] c2d2e4 | 
[V:3] C8 | 
[V:4] c4c4 | 
[V:5] A2GFG4 | 
[V:6] F,2F,2E,4 | 
[V:1] z4A4- | 
[V:2] f6ed | 
[V:3] F3GAGA2- | 
[V:4] d8 | 
[V:5] A8 | 
[V:6] D,6C,B,, | 
[V:1] A4A4 | 
[V:2] e4A4 | 
[V:3] A2GFE4 | 
[V:4] c8 | 
[V:5] z8 | 
[V:6] A,,8 | 
[V:1] F4A4- | 
[V:2] z8 | 
[V:3] D4z4 | 
[V:4] d4e4- | 
[V:5] A8 | 
[V:6] z8 | 
[V:1] A4G3F | 
[V:2] z4G4 | 
[V:3] z8 | 
[V:4] e2dcd4 | 
[V:5] A4B4 | 
[V:6] z8 | 
[V:1] G8 | 
[V:2] c8 | 
[V:3] C8 | 
[V:4] e8 | 
[V:5] G8 | 
[V:6] z8 | 
[V:1] A8 | 
[V:2] A4F4 | 
[V:3] F3GA2B2 | 
[V:4] z8 | 
[V:5] F8 | 
[V:6] z4D,4 | 
[V:1] z4c4- | 
[V:2] G4A4 | 
[V:3] c2c3BAG | 
[V:4] e8 | 
[V:5] z8 | 
[V:6] C,4A,,4- | 
[V:1] c2B2A2G2 | 
[V:2] z8 | 
[V:3] A4F4 | 
[V:4] e4f4 | 
[V:5] A8 | 
[V:6] A,,4D,4- | 
[V:1] F3EDCF2- | 
[V:2] z8 | 
[V:3] F8 | 
[V:4] d8 | 
[V:5] A4B4 | 
[V:6] D,4B,,4 | 
[V:1] F2EDE4 | 
[V:2] z4c4- | 
[V:3] z4G4 | 
[V:4] c8 | 
[V:5] G8 | 
[V:6] C,8 | 
[V:1] F4C4- | 
[V:2] c2c/B/A/G/A2F2 | 
[V:3] A8- | 
[V:4] z8 | 
[V:5] F8 | 
[V:6] F,,8 | 
[V:1] C2D2E2F2 | 
[V:2] c8 | 
[V:3] A8 | 
[V:4] e8 | 
[V:5] z8 | 
[V:6] z8 | 
[V:1] G4c4- | 
[V:2] B4A4 | 
[V:3] G4F4 | 
[V:4] e4f4 | 
[V:5] z8 | 
[V:6] z8 | 
[V:1] c2=BA=B4 | 
[V:2] G4g4- | 
[V:3] G8 | 
[V:4] d8 | 
[V:5] z8 | 
[V:6] z8 | 
[V:1] c8- | 
[V:2] g2c2c4 | 
[V:3] z4c4 | 
[V:4] c8 | 
[V:5] z4F4- | 
[V:6] z8 | 
[V:1] c8 | 
[V:2] z4c4 | 
[V:3] A6GF | 
[V:4] z8 | 
[V:5] F4F4 | 
[V:6] z4F,4 | 
[V:1] z8 | 
[V:2] d4e4 | 
[V:3] A2B2c4 | 
[V:4] z8 | 
[V:5] D4C4 | 
[V:6] F,4E,4 | 
[V:1] z4B4- | 
[V:2] f8- | 
[V:3] d8 | 
[V:4] z8 | 
[V:5] F8 | 
[V:6] D,4B,,4 | 
[V:1] B4A4 | 
[V:2] f6ed | 
[V:3] c8 | 
[V:4] z4c4- | 
[V:5] F8 | 
[V:6] F,8 | 
[V:1] G6FE | 
[V:2] e8 | 
[V:3] z4C4 | 
[V:4] c4c4 | 
[V:5] z8 | 
[V:6] C,8 | 
[V:1] F4G4 | 
[V:2] c8 | 
[V:3] F4E4 | 
[V:4] A4G4 | 
[V:5] z4E4 | 
[V:6] z4C,4 | 
[V:1] A8 | 
[V:2] z4A4- | 
[V:3] C8- | 
[V:4] c8 | 
[V:5] F4F4 | 
[V:6] A,,4F,,4- | 
[V:1] F8 | 
[V:2] A4A4 | 
[V:3] C8 | 
[V:4] c8 | 
[V:5] F8 | 
[V:6] F,,2G,,2A,,3B,, | 
[V:1] z4B4- | 
[V:2] B3ABGg2- | 
[V:3] z8 | 
[V:4] z8 | 
[V:5] G8- | 
[V:6] G,,8 | 
[V:1] B4G4 | 
[V:2] gff4e2 | 
[V:3] z8 | 
[V:4] z4B4 | 
[V:5] G8 | 
[V:6] z4B,4 | 
[V:1] A4A4 | 
[V:2] f8 | 
[V:3] z8 | 
[V:4] c4c4 | 
[V:5] F8- | 
[V:6] A,4F,4- | 
[V:1] F8 | 
[V:2] z4F4- | 
[V:3] F6G2 | 
[V:4] c8 | 
[V:5] F8 | 
[V:6] F,2G,2A,4 | 
[V:1] z8 | 
[V:2] F2G2A4 | 
[V:3] A4D4 | 
[V:4] d8- | 
[V:5] z8 | 
[V:6] D,3E,F,4 | 
[V:1] B8 | 
[V:2] F4f4- | 
[V:3] D6E2 | 
[V:4] d8 | 
[V:5] z8 | 
[V:6] B,,8 | 
[V:1] A4G4 | 
[V:2] f4e3d | 
[V:3] F4G4 | 
[V:4] c8- | 
[V:5] z4E4 | 
[V:6] z4C,4 | 
[V:1] A8 | 
[V:2] c2B2A2G2 | 
[V:3] C8- | 
[V:4] c8 | 
[V:5] F4F4 | 
[V:6] A,,4F,,4- | 
[V:1] F4c4 | 
[V:2] A8 | 
[V:3] C8 | 
[V:4] z8 | 
[V:5] F8 | 
[V:6] F,,2G,,2A,,3B,, | 
[V:1] B3AGFG2- | 
[V:2] z4B4 | 
[V:3] z8 | 
[V:4] z8 | 
[V:5] G8- | 
[V:6] G,,8 | 
[V:1] GFF4E2 | 
[V:2] G4G4 | 
[V:3] z8 | 
[V:4] z4B4 | 
[V:5] G8 | 
[V:6] z4B,4 | 
[V:1] F8- | 
[V:2] c8 | 
[V:3] F6G2 | 
[V:4] c4c4 | 
[V:5] F8- | 
[V:6] A,4F,4- | 
[V:1] F8- | 
[V:2] F6G2 | 
[V:3] A4F4- | 
[V:4] c8 | 
[V:5] F8- | 
[V:6] F,2G,2A,4 | 
[V:1] F8- | 
[V:2] A4F4 | 
[V:3] F2G2A4 | 
[V:4] d8- | 
[V:5] F8- | 
[V:6] D,6C,2 | 
[V:1] F8- | 
[V:2] B8 | 
[V:3] D6E2 | 
[V:4] d8 | 
[V:5] F8- | 
[V:6] B,,8 | 
[V:1] F8- | 
[V:2] A8- | 
[V:3] F6ED | 
[V:4] c8- | 
[V:5] F8- | 
[V:6] F,,8- | 
[V:1] F8 ||  
[V:2] A8 ||  
[V:3] C8 ||  
[V:4] c8 ||  
[V:5] F8 ||  
[V:6] F,,8 ||  
[V:1]  [K:F] [K:clef=treble][M:2/1]F8- | 
[V:2]  [K:F] [K:clef=treble-8][M:2/1]c8- | 
[V:3]  [K:F] [K:clef=treble-8][M:2/1]A8 | 
[V:4]  [K:F] [K:clef=treble-8][M:2/1]z8 | 
[V:5]  [K:F] [K:clef=treble-8][M:2/1]z8 | 
[V:6]  [K:F] [K:clef=bass][M:2/1]F,8- | 
[V:1] F8 | 
[V:2] c4d4 | 
[V:3] A4F4 | 
[V:4] z8 | 
[V:5] z8 | 
[V:6] F,4D,4 | 
[V:1] G8 | 
[V:2] e8 | 
[V:3] c8 | 
[V:4] z8 | 
[V:5] z8 | 
[V:6] C,8 | 
[V:1] A4B4- | 
[V:2] f8- | 
[V:3] c4d4- | 
[V:4] z8 | 
[V:5] z8 | 
[V:6] F,8- | 
[V:1] B2AGA2F2 | 
[V:2] f6f/e/d/c/ | 
[V:3] d2cBc2d2 | 
[V:4] z8 | 
[V:5] z8 | 
[V:6] F,8 | 
[V:1] B4A2G2- | 
[V:2] d6B2 | 
[V:3] G3EF2G2 | 
[V:4] z8 | 
[V:5] z8 | 
[V:6] z8 | 
[V:1] GFF4E2 | 
[V:2] c3B/A/G4 | 
[V:3] E2C2c4- | 
[V:4] z8 | 
[V:5] z8 | 
[V:6] C,8 | 
[V:1] F4z2C2 | 
[V:2] F8 | 
[V:3] c2B2A2G2 | 
[V:4] z8 | 
[V:5] z8 | 
[V:6] F,6E,2 | 
[V:1] F3ED4 | 
[V:2] z8 | 
[V:3] FEA4G2 | 
[V:4] z8 | 
[V:5] z8 | 
[V:6] D,2C,2B,,4 | 
[V:1] C8 | 
[V:2] z4c4 | 
[V:3] A8 | 
[V:4] z8 | 
[V:5] z8 | 
[V:6] A,,2F,,2F,4- | 
[V:1] z8 | 
[V:2] f6e2 | 
[V:3] D3EF2G2- | 
[V:4] z8 | 
[V:5] z8 | 
[V:6] F,2E,2D,2C,2 | 
[V:1] z4G4 | 
[V:2] d2c2B4 | 
[V:3] GFF4E2 | 
[V:4] z8 | 
[V:5] z8 | 
[V:6] B,,2A,,2G,,4 | 
[V:1] c6B2 | 
[V:2] A3Bc2d2- | 
[V:3] F4z4 | 
[V:4] z8 | 
[V:5] F8 | 
[V:6] F,,8 | 
[V:1] A3GF4 | 
[V:2] dcc4=B2 | 
[V:3] z2F2F4 | 
[V:4] z8 | 
[V:5] F4D4 | 
[V:6] z8 | 
[V:1] E4C4 | 
[V:2] c8 | 
[V:3] G4A4- | 
[V:4] z8 | 
[V:5] C4F4- | 
[V:6] z8 | 
[V:1] c6B2 | 
[V:2] z8 | 
[V:3] A2GFA3B | 
[V:4] c8 | 
[V:5] F4F4 | 
[V:6] z4F,4 | 
[V:1] A2G4F2 | 
[V:2] z4c4 | 
[V:3] c8 | 
[V:4] c4A4 | 
[V:5] z8 | 
[V:6] F,2F,2F,4 | 
[V:1] G4z2C2 | 
[V:2] c4c4- | 
[V:3] z4G4 | 
[V:4] G4c4- | 
[V:5] z4E4 | 
[V:6] C,8 | 
[V:1] c6B2 | 
[V:2] c2B2A3G | 
[V:3] A3Bc4 | 
[V:4] c4c4 | 
[V:5] F4F4 | 
[V:6] F,,4F,4- | 
[V:1] A2G2F3E | 
[V:2] A4z2A2 | 
[V:3] F4z4 | 
[V:4] z8 | 
[V:5] F8 | 
[V:6] F,2E,2D,3C, | 
[V:1] D2C2D4 | 
[V:2] B2G4g2- | 
[V:3] z4G4 | 
[V:4] z4B4 | 
[V:5] G8- | 
[V:6] B,,2C,2G,,4 | 
[V:1] C8 | 
[V:2] gfede4 | 
[V:3] C4c4- | 
[V:4] c4c4 | 
[V:5] G8 | 
[V:6] z2C,4C,2 | 
[V:1] z4F4- | 
[V:2] f4z4 | 
[V:3] c2B2A4- | 
[V:4] c8 | 
[V:5] F8- | 
[V:6] F,6E,2 | 
[V:1] F2G2A4 | 
[V:2] F8 | 
[V:3] A2G2F2E2 | 
[V:4] d8- | 
[V:5] F8 | 
[V:6] D,6C,2 | 
[V:1] B6A2 | 
[V:2] F4G2A2- | 
[V:3] D6F2- | 
[V:4] d8 | 
[V:5] z8 | 
[V:6] B,,3A,,G,,2F,,2 | 
[V:1] A4G4 | 
[V:2] ABc3Gc2- | 
[V:3] F4C4 | 
[V:4] c8- | 
[V:5] z4E4 | 
[V:6] A,,3B,,C,4 | 
[V:1] A8 | 
[V:2] cBAGA4 | 
[V:3] z4C4 | 
[V:4] c8 | 
[V:5] F4F4 | 
[V:6] z2F,,4F,,2 | 
[V:1] F4B4- | 
[V:2] B8- | 
[V:3] D4D4 | 
[V:4] z8 | 
[V:5] F8 | 
[V:6] B,,6A,,2 | 
[V:1] B2A2G3F | 
[V:2] B8 | 
[V:3] D8 | 
[V:4] z4B4 | 
[V:5] G8- | 
[V:6] G,,8 | 
[V:1] EDF4E2 | 
[V:2] z4G4 | 
[V:3] C4c4- | 
[V:4] c4c4 | 
[V:5] G8 | 
[V:6] C,6C,2 | 
[V:1] F8- | 
[V:2] A4F4 | 
[V:3] c2B2A2G2 | 
[V:4] c8 | 
[V:5] F8- | 
[V:6] F,6E,2 | 
[V:1] F8- | 
[V:2] f6e2 | 
[V:3] A4F4 | 
[V:4] d8- | 
[V:5] F8- | 
[V:6] D,6C,2 | 
[V:1] F8- | 
[V:2] d2c2B4 | 
[V:3] B8 | 
[V:4] d8 | 
[V:5] F8- | 
[V:6] B,,8 | 
[V:1] F8- | 
[V:2] c6A2 | 
[V:3] A3GF2ED | 
[V:4] c8- | 
[V:5] F8- | 
[V:6] F,,8- | 
[V:1] F8 |]  
[V:2] A8 |]  
[V:3] C8 |]  
[V:4] c8 |]  
[V:5] F8 |]  
[V:6] F,,8 |]  



